!!!COM: Beethoven, Ludwig van
!!!CDT: 1770///-1827///
!!!OTL: Piano Sonata no. 1, mvmt. 3
!!!OMD: Minuet: Allegretto
!!!OPS: Op. 2
!!!ONM: No. 1
!!!OMV: No. 3
!!!AGN: Minuet and Trio
**kern	**dynam	**kern	**dynam
*thru	*thru	*thru	*thru
*Ipiano	*Ipiano	*Ipiano	*Ipiano
!! Minuetto: Allegretto
*>A	*>A	*>A	*>A
*clefF4	*clefF4	*clefG2	*clefG2
*k[b-e-a-d-]	*k[b-e-a-d-]	*k[b-e-a-d-]	*k[b-e-a-d-]
*f:	*f:	*f:	*f:
*M3/4	*M3/4	*M3/4	*M3/4
*MM118	*MM118	*MM118	*MM118
4r	.	4c'/ 4a-'/	p
=1	=1	=1	=1
4r	.	(4d-/ 4b-/	.
4r	.	4B-/) 4g/	.
4F\	.	4r	.
=2	=2	=2	=2
4r	.	(4c/ 4a-/	.
4r	.	4A-/) 4f/	.
4F\ (4A-\	.	(4c/ 4f/	.
=3	=3	=3	=3
4G\ 4B-\	.	4c/ 4e/	.
4F\ 4A-\	.	4c/ 4f/	.
4E\ 4G\)	.	4c/) 4g/	.
=4	=4	=4	=4
*	*	*^	*
2F\ 2A-\	.	(4b-/	2c\	.
.	.	4a-/)	.	.
4r	.	4e-/ 4cc/	4r	.
*	*	*v	*v	*
=5	=5	=5	=5
4r	.	(4f/ 4dd-/	.
4r	.	4d-/) 4b-/	.
4AA-\ 4A-\	.	4r	.
=6	=6	=6	=6
4r	.	(4e-/ 4cc/	.
4r	.	4c/) 4a-/	.
4A-\ (4c\	.	(4e-/ 4a-/	.
=7	=7	=7	=7
4B-\ 4d-\	.	4e-/ 4g/	.
4A-\ 4c\	.	4e-/ 4a-/	.
4G\ 4B-\)	.	4e-/) 4b-/	.
=8	=8	=8	=8
*	*	*^	*
2A-\ 2c\	.	(4dd-/	2e-\	.
.	.	4cc/)	.	f
4c\ (4e-\	.	4ee-/	(4a-\	.
=9	=9	=9	=9	=9
4B-\ 4d-\	.	4ee-/	4g\	.
4A-\ 4c\	.	4ee-/	4a-\	.
4G\ 4B-\)	.	4ee-/	4b-\)	.
=10	=10	=10	=10	=10
2A-\	.	2ee-/	(4dd-\	.
.	.	.	4cc\)	.
4D-\ 4B-\	.	4ry	4ff\	p
*	*	*v	*v	*
=11	=11	=11	=11
2E-\ 2c\	.	(2a-/	.
.	.	ccQ/	.
4E-\ 4d-\	.	4g/) 4b-/	.
=12	=12	=12	=12
4A-\ 4c\	.	4a-/	.
4r	.	4r	.
4r	.	(8gg\L	.
.	.	8ff\J)	.
=13	=13	=13	=13
2E-\ 2c\	.	(2a-/	.
.	.	ccQ/	.
4E-\ 4d-\	.	4g/) 4b-/	.
=14	=14	=14	=14
4A-\ 4c\	.	4a-/	.
4r	.	4r	.
=:|!|:	=:|!|:	=:|!|:	=:|!|:
*>B	*>B	*>B	*>B
4r	.	4cc\ (4ee-\	p
=15	=15	=15	=15
4r	.	4dd-\ 4ff-\	.
4G\ (4B-\	.	4b-\ 4dd-\)	.
4B-\ 4d-\)	.	4r	.
=16	=16	=16	=16
4r	.	4cc\ (4ee-\	.
4A-\ (4c\	.	4a-\ 4cc\)	.
4c\ 4e-\)	.	4r	.
=17	=17	=17	=17
4r	.	4ee-\ (4gg-\	.
4A\ (4c\	.	4cc\ 4ee-\)	.
4c\ 4e-\)	.	4r	.
=18	=18	=18	=18
4r	.	4dd-\ (4ffn\	.
4B-\ (4d-\	.	4b-\ 4dd-\)	.
4d-\ 4f\)	.	4r	.
=19	=19	=19	=19
2F\ (2d-\	.	(2f/ 2b-/	p
.	.	dd-Q/	.
4F\ 4e-\	.	4a/) 4cc/	.
=20	=20	=20	=20
4B-\ 4d-\)	.	4b-\	.
4r	.	4r	.
4r	.	(8gg-\L	.
.	.	8ff\J)	.
=21	=21	=21	=21
2F\ (2d-\	.	2b-\	pp
.	.	(dd-Q/	.
4F\ 4e-\	.	4a\) 4cc\	.
=22	=22	=22	=22
4B-\ 4d-\)	.	4b-\	.
4r	.	4r	.
4F\ (4e-\	.	8a\ (8dd-\L	.
.	.	8cc\J)	.
=23	=23	=23	=23
4B-\ 4d-\)	.	4b-\	.
4r	.	4r	.
4F\ (4e-\	.	8a\ (8dd-\L	.
.	.	8cc\J)	.
=24	=24	=24	=24
4B-\ 4d-\)	.	4b-\	.
4r	.	4r	.
(8d-\L	.	(8dd-\L	ff
8c\J	.	8cc\J	.
=25	=25	=25	=25
8B-\L	.	8b-\L	.
8c\	.	8cc\	.
8d-\	.	8dd-\	.
8c\	.	8cc\	.
8B-\	.	8b-\	.
8c\J	.	8cc\J	.
=26	=26	=26	=26
8B-\L	.	8b-/L	.
8A-\	.	8a-/	.
8G\	.	8g/	.
8A-\	.	8a-/	.
8G\	.	8g/	.
8F\J	.	8f/J	.
=27	=27	=27	=27
8E\L	.	8e/L	.
8F\	.	8f/	.
8G\	.	8g/	.
8F\	.	8f/	.
8A-\	.	8a-/	.
8BB\J)	.	8B/J)	.
=28	=28	=28	=28
4C'\	.	4c'/	f
4c\	.	4r	.
*clefG2	*clefG2	*	*
4c/ 4a-/	.	4r	.
=29	=29	=29	=29
(4d-/ 4b-/	.	4r	.
4B-/) 4g/	.	4r	.
4B-/ 4g/	.	4ee\	.
=30	=30	=30	=30
(4c/ 4a-/	.	(4ff\	.
4A-/) 4f/	.	4aa-\)	.
*clefF4	*clefF4	*	*
4F\ 4A-\	.	4ccct\	.
.	.	16bb-QL	.
.	.	16cccQJ	.
=31	=31	=31	=31
4E\ (4G\	.	(4ddd-\	.
4G\ 4B-\)	.	4bb-\)	.
4G\ 4B-\	.	4bb-T\	.
.	.	16aa-QL	.
.	.	16bb-QJ	.
=32	=32	=32	=32
4F\ (4A-\	.	(4ccc\	.
4A-\ 4c\)	.	4aa-\)	.
4A-\ 4c\ 4f\	.	4aa-T\	.
.	.	16ggQL	.
.	.	16aa-QJ	.
=33	=33	=33	=33
4G\ 4B-\ 4e\	.	(4bb-\	f
4B-\ 4d-\ 4e\	.	4gg\)	.
4B-\ 4d-\ 4e\	.	4ggT\	.
.	.	16ffQL	.
.	.	16ggQJ	.
*clefG2	*clefG2	*	*
=34	=34	=34	=34
*^	*	*	*
(4f/	2B\ 2d\	.	(4aa-\	.
4a-/)	.	.	4ff\)	.
4a-/	4B\ 4d\	.	4ff'\	.
=35	=35	=35	=35	=35
2a-/	2c\	.	(2ff\	p
.	.	.	aa-Q/	.
4b-/	4c\	.	4ee\ 4gg\)	.
=36	=36	=36	=36	=36
4a-/	4f\	.	4ff\	.
*v	*v	*	*	*
4r	.	4r	.
4r	.	(8ee-X\L	pp
.	.	8dd-\J)	.
*clefF4	*clefF4	*	*
=37	=37	=37	=37
2C\ 2A-\	.	(2f/	.
.	.	a-Q/	.
4C\ 4B-\	.	4e/) 4g/	.
=38	=38	=38	=38
4F\ 4A-\	.	4f/	.
4r	.	4r	.
4r	.	4r	.
=39	=39	=39	=39
(2.CC\ 2.C\	pp	(2.E/ 2.G/ 2.c/	.
=40	=40	=40	=40
4FF\)	.	4F/)	p
4r	.	4r	.
!!!ENC: Craig Stuart Sapp
!!!END: 2004/04/06/
!!!ONB: preliminary proof reading done on 2008/10/20/
!!!hum2abc: --spacing 1.85
